X:1
T:Theme Vannitaise
O:Brittany
M:4/4
C:Tri Yann
A:Border
R:Reel
L:1/8
K:Emin
P:A
|:\
E2 B2 B2 AB|G2 E2 E4|A2 AG F2 FE|DE FA G2 F2|\
E2 B2 B2 AB|G2 E2 E4|A2 AG F2 FE|DEFA  E4:|\
P:B
|:EF GF EF GF|EF GA B2 G2|DE FE D3  E|F2 A2 G2 F2|\
EF GF EF GF|EF GA B2 G2|DE FE D3  A|G2 F2 E4:|

